Numix/16/apps/ppa.svg

<?xml version="1.0" encoding="UTF-8" standalone="no"?>
<svg
   xmlns:dc="http://purl.org/dc/elements/1.1/"
   xmlns:cc="http://creativecommons.org/ns#"
   xmlns:rdf="http://www.w3.org/1999/02/22-rdf-syntax-ns#"
   xmlns:svg="http://www.w3.org/2000/svg"
   xmlns="http://www.w3.org/2000/svg"
   xmlns:sodipodi="http://sodipodi.sourceforge.net/DTD/sodipodi-0.dtd"
   xmlns:inkscape="http://www.inkscape.org/namespaces/inkscape"
   viewBox="0 0 16 16"
   id="svg2"
   version="1.1"
   inkscape:version="0.91 r"
   sodipodi:docname="ppa.svg"
   width="16"
   height="16">
  <metadata
     id="metadata85">
    <rdf:RDF>
      <cc:Work
         rdf:about="">
        <dc:format>image/svg+xml</dc:format>
        <dc:type
           rdf:resource="http://purl.org/dc/dcmitype/StillImage" />
        <dc:title></dc:title>
      </cc:Work>
    </rdf:RDF>
  </metadata>
  <sodipodi:namedview
     pagecolor="#ffffff"
     bordercolor="#666666"
     borderopacity="1"
     objecttolerance="10"
     gridtolerance="10"
     guidetolerance="10"
     inkscape:pageopacity="0"
     inkscape:pageshadow="2"
     inkscape:window-width="1920"
     inkscape:window-height="1056"
     id="namedview83"
     showgrid="true"
     inkscape:zoom="39.333334"
     inkscape:cx="8.8488159"
     inkscape:cy="11.085216"
     inkscape:window-x="0"
     inkscape:window-y="24"
     inkscape:window-maximized="1"
     inkscape:current-layer="svg2">
    <inkscape:grid
       type="xygrid"
       id="grid4213" />
  </sodipodi:namedview>
  <defs
     id="defs4">
    <linearGradient
       id="linearGradient3764"
       x1="1"
       x2="47"
       gradientUnits="userSpaceOnUse"
       gradientTransform="matrix(0,-1,1,0,-1.5e-6,47.999998)">
      <stop
         stop-color="#e4e4e4"
         stop-opacity="1"
         id="stop7" />
      <stop
         offset="1"
         stop-color="#eee"
         stop-opacity="1"
         id="stop9" />
    </linearGradient>
    <clipPath
       id="clipPath-049320422">
      <g
         transform="translate(0,-1004.3622)"
         id="g12">
        <path
           d="m -24,13 c 0,1.105 -0.672,2 -1.5,2 -0.828,0 -1.5,-0.895 -1.5,-2 0,-1.105 0.672,-2 1.5,-2 0.828,0 1.5,0.895 1.5,2 z"
           transform="matrix(15.333333,0,0,11.5,414.99999,878.8622)"
           id="path14"
           inkscape:connector-curvature="0"
           style="fill:#1890d0" />
      </g>
    </clipPath>
    <clipPath
       id="clipPath-054510414">
      <g
         transform="translate(0,-1004.3622)"
         id="g17">
        <path
           d="m -24,13 c 0,1.105 -0.672,2 -1.5,2 -0.828,0 -1.5,-0.895 -1.5,-2 0,-1.105 0.672,-2 1.5,-2 0.828,0 1.5,0.895 1.5,2 z"
           transform="matrix(15.333333,0,0,11.5,414.99999,878.8622)"
           id="path19"
           inkscape:connector-curvature="0"
           style="fill:#1890d0" />
      </g>
    </clipPath>
  </defs>
  <g
     id="g33"
     transform="matrix(0.375,0,0,0.375,-1.125,-1.061298)" />
  <path
     style="fill:#cf8c3b;fill-opacity:1;fill-rule:nonzero;stroke:none"
     inkscape:connector-curvature="0"
     id="path71"
     d="m 14.5,5.125 -2.5,1.143 0,3.464 2.5,1.143 z"
     sodipodi:nodetypes="ccccc" />
  <path
     style="opacity:1;fill:#f8c100;fill-opacity:1;fill-rule:nonzero;stroke:none;stroke-width:2;stroke-linecap:butt;stroke-linejoin:miter;stroke-miterlimit:4;stroke-dasharray:none;stroke-dashoffset:0;stroke-opacity:1"
     d="M 8,11.464102 5,9.732051 5,6.2679495 8,4.5358985 11,6.267949 11,9.7320505 Z"
     id="path4241"
     inkscape:connector-curvature="0" />
  <path
     sodipodi:nodetypes="ccccc"
     d="M 1.5,5.125 4,6.268 4,9.732 1.5,10.875 Z"
     id="path4189"
     inkscape:connector-curvature="0"
     style="fill:#363dbe;fill-opacity:1;fill-rule:nonzero;stroke:none" />
  <path
     sodipodi:nodetypes="ccccc"
     d="m 8.760177,0.93333488 -0.260133,2.73656352 2.999912,1.732 2.239867,-1.5935635 z"
     id="path4150"
     inkscape:connector-curvature="0"
     style="fill:#8eb335;fill-opacity:1;fill-rule:nonzero;stroke:none" />
  <path
     style="fill:#b93780;fill-opacity:1;fill-rule:nonzero;stroke:none"
     inkscape:connector-curvature="0"
     id="path4152"
     d="m 2.260177,12.191665 2.239867,-1.593563 2.999912,1.732 -0.260133,2.736563 z"
     sodipodi:nodetypes="ccccc" />
  <path
     style="fill:#3695ba;fill-opacity:1;fill-rule:nonzero;stroke:none"
     inkscape:connector-curvature="0"
     id="path4154"
     d="m 2.260177,3.8083348 2.2398671,1.5935636 2.999912,-1.732 -0.260133,-2.73656351 z"
     sodipodi:nodetypes="ccccc" />
  <path
     sodipodi:nodetypes="ccccc"
     d="m 8.7601769,15.066665 -0.2601325,-2.736563 2.9999116,-1.732 2.239867,1.593563 z"
     id="path4156"
     inkscape:connector-curvature="0"
     style="fill:#9d2c34;fill-opacity:1;fill-rule:nonzero;stroke:none" />
</svg>

<svg xmlns="http://www.w3.org/2000/svg" viewBox="0 0 16 16">
 <path d="m 14.5 5.125 -2.5 1.143 0 3.464 2.5 1.143 z" style="fill:#cf8c3b;fill-opacity:1;stroke:none;fill-rule:nonzero"/>
 <path d="m 8 11.464 -3 -1.732 0 -3.464 3 -1.732 3 1.732 0 3.464" style="fill:#f8c100;opacity:1;fill-opacity:1;stroke:none;fill-rule:nonzero"/>
 <path d="m 1.5 5.125 2.5 1.143 0 3.464 -2.5 1.143" style="fill:#363dbe;fill-opacity:1;stroke:none;fill-rule:nonzero"/>
 <path d="m 8.76 0.933 -0.26 2.737 3 1.732 2.24 -1.594 z" style="fill:#8eb335;fill-opacity:1;stroke:none;fill-rule:nonzero"/>
 <path d="m 2.26 12.192 2.24 -1.594 3 1.732 -0.26 2.737 z" style="fill:#b93780;fill-opacity:1;stroke:none;fill-rule:nonzero"/>
 <path d="m 2.26 3.808 2.24 1.594 3 -1.732 -0.26 -2.737 z" style="fill:#3695ba;fill-opacity:1;stroke:none;fill-rule:nonzero"/>
 <path d="m 8.76 15.07 -0.26 -2.737 3 -1.732 2.24 1.594 z" style="fill:#9d2c34;fill-opacity:1;stroke:none;fill-rule:nonzero"/>
</svg>
